client/src/img/Express.svg

<svg width="62" height="14" viewBox="0 0 62 14" fill="none" xmlns="http://www.w3.org/2000/svg">
<path d="M19.2349 13.8361V0.271542H19.9712V2.4054C20.0582 2.31087 20.1385 2.21045 20.2116 2.10486C20.5125 1.48029 20.9852 0.954423 21.5743 0.588909C22.1634 0.223395 22.8444 0.0333749 23.5376 0.0411233C25.2157 -0.00896728 26.5781 0.612158 27.3796 2.10486C27.8895 3.03215 28.1702 4.06801 28.1981 5.1259C28.226 6.18379 28.0003 7.23299 27.5399 8.18586C26.7935 9.85888 24.9502 10.6904 22.9766 10.3848C22.3625 10.3325 21.7712 10.1273 21.2567 9.78778C20.7422 9.4483 20.321 8.9854 20.0313 8.44132V13.8361H19.2349ZM19.9712 5.07022C20.0363 5.73142 20.0614 6.20227 20.1365 6.6631C20.427 8.47638 21.499 9.55333 23.182 9.74869C23.9723 9.87859 24.7831 9.73042 25.4764 9.32944C26.1697 8.92847 26.7024 8.29949 26.9839 7.5497C27.3073 6.77849 27.463 5.94729 27.4405 5.11131C27.4181 4.27532 27.218 3.45368 26.8536 2.70094C26.5532 2.02892 26.0423 1.4729 25.398 1.11687C24.7537 0.76084 24.011 0.624122 23.2822 0.727366C22.5979 0.776945 21.946 1.03851 21.4173 1.47571C20.8885 1.9129 20.5091 2.50398 20.3318 3.16678C20.175 3.79376 20.0545 4.42931 19.9712 5.07022Z" fill="white"/>
<path d="M43.2183 6.91331C43.1068 7.86835 42.6521 8.75037 41.939 9.39533C41.2259 10.0403 40.3027 10.4043 39.3413 10.4197C36.2557 10.5749 34.8081 8.52623 34.5777 6.16195C34.4178 4.87802 34.6263 3.57509 35.1788 2.40516C35.5636 1.60265 36.1938 0.943418 36.9781 0.522872C37.7625 0.102326 38.6603 -0.0577106 39.5417 0.0659261C40.3796 0.136943 41.1739 0.469755 41.8122 1.01724C42.4505 1.56472 42.9004 2.29912 43.0981 3.11644C43.2549 3.86084 43.3703 4.61335 43.4437 5.37052H35.3341C35.1838 7.5144 36.3359 9.23752 37.9688 9.65327C40.0025 10.1542 41.7407 9.27258 42.3718 7.33908C42.5121 6.84318 42.7675 6.77306 43.2183 6.91331ZM35.3341 4.68428H42.5822C42.5371 2.40015 41.1145 0.747157 39.186 0.722112C37.0021 0.687048 35.4293 2.27993 35.3341 4.68428Z" fill="white"/>
<path d="M44.711 6.96372H45.4223C45.4486 7.4871 45.6186 7.99311 45.9138 8.42612C46.209 8.85914 46.6178 9.20239 47.0953 9.41816C47.695 9.68803 48.3478 9.81917 49.0052 9.80182C49.6626 9.78448 50.3076 9.6191 50.8922 9.31798C51.2108 9.17436 51.4777 8.93646 51.6568 8.6364C51.836 8.33634 51.9187 7.98854 51.894 7.63995C51.9123 7.30374 51.8205 6.97073 51.6325 6.69141C51.4445 6.41209 51.1705 6.2017 50.8521 6.09215C50.0707 5.80162 49.2392 5.64133 48.4428 5.38587C47.6141 5.14988 46.8038 4.85356 46.0184 4.49927C44.7361 3.87313 44.6559 1.43372 46.1085 0.662325C46.8524 0.242584 47.6894 0.0158037 48.5434 0.00267921C49.3974 -0.0104453 50.241 0.190503 50.9974 0.587189C51.4556 0.84041 51.8257 1.22729 52.0584 1.69623C52.291 2.16518 52.3753 2.69391 52.2997 3.21194H51.6886C51.6886 3.18188 51.6335 3.15684 51.6335 3.12678C51.5584 1.17826 49.9255 0.57717 48.1723 0.747479C47.6489 0.812036 47.1406 0.96623 46.6696 1.2033C46.3866 1.33272 46.1508 1.54679 45.9946 1.81596C45.8385 2.08513 45.7698 2.39613 45.798 2.70602C45.7989 3.01605 45.8956 3.31823 46.075 3.57112C46.2543 3.82401 46.5075 4.01523 46.7998 4.11858C47.5712 4.39908 48.3777 4.57941 49.1691 4.79981C49.8052 4.97513 50.4664 5.09033 51.0825 5.30071C51.5174 5.44326 51.8987 5.71452 52.176 6.07857C52.4533 6.44262 52.6135 6.8823 52.6354 7.3394C52.7097 7.84024 52.6244 8.35177 52.3915 8.80136C52.1586 9.25094 51.79 9.61573 51.338 9.84393C49.665 10.7906 46.91 10.5402 45.6828 9.34303C45.3718 9.03022 45.1257 8.65892 44.959 8.25056C44.7922 7.84219 44.7079 7.40483 44.711 6.96372Z" fill="white"/>
<path d="M61.6517 3.2119H60.9855C60.9855 3.12174 60.9504 3.04159 60.9404 2.96646C60.9296 2.46708 60.7475 1.98658 60.4247 1.60541C60.1019 1.22425 59.658 0.96556 59.1672 0.872668C58.2412 0.606979 57.2533 0.654523 56.3571 1.00791C56.0029 1.10949 55.691 1.3229 55.468 1.6163C55.245 1.9097 55.1229 2.26735 55.1199 2.63586C55.1074 2.99776 55.2202 3.35288 55.4392 3.64125C55.6583 3.92963 55.9701 4.1336 56.322 4.21872C57.3239 4.52928 58.3507 4.71963 59.3676 5.00014C59.6971 5.07922 60.0216 5.17791 60.3393 5.29567C60.8138 5.46543 61.226 5.77437 61.5221 6.18213C61.8183 6.58989 61.9845 7.07749 61.9991 7.58121C62.0137 8.08494 61.876 8.58135 61.604 9.00558C61.332 9.42982 60.9384 9.76214 60.4746 9.95911C59.7677 10.2801 59.0015 10.4499 58.2252 10.4577C57.4489 10.4654 56.6796 10.311 55.9664 10.0042C55.3799 9.75125 54.885 9.32472 54.5483 8.78202C54.2116 8.23931 54.0492 7.60648 54.083 6.9687H54.3635H54.7342C54.8546 7.54989 55.115 8.09296 55.4926 8.55088C55.8702 9.0088 56.3538 9.36776 56.9014 9.59668C57.4491 9.8256 58.0442 9.91757 58.6354 9.86464C59.2266 9.81171 59.796 9.61546 60.2942 9.2929C60.5978 9.13521 60.8497 8.89379 61.0201 8.59725C61.1906 8.30072 61.2725 7.96152 61.256 7.61988C61.2711 7.28347 61.176 6.95132 60.9853 6.67381C60.7946 6.39629 60.5185 6.18855 60.1991 6.08209C59.4176 5.79157 58.5861 5.63629 57.7897 5.38082C56.9563 5.14848 56.141 4.8555 55.3503 4.50424C54.098 3.88812 53.9978 1.46875 55.4254 0.697352C56.1785 0.260026 57.0319 0.0251025 57.9027 0.0154469C58.7734 0.00579122 59.6319 0.221732 60.3944 0.642252C60.8305 0.902592 61.1815 1.28409 61.4048 1.74031C61.628 2.19653 61.7138 2.70781 61.6517 3.2119Z" fill="white"/>
<path d="M18.0177 10.1739C17.7554 10.2732 17.4659 10.273 17.2037 10.1733C16.9416 10.0736 16.7251 9.88139 16.5951 9.63291C15.7786 8.4107 14.877 7.24359 14.0104 6.05143L13.6347 5.55053C12.6029 6.93303 11.571 8.26043 10.6293 9.63792C10.5066 9.87539 10.3018 10.0602 10.053 10.1579C9.80417 10.2555 9.52834 10.2595 9.27686 10.1689L13.1489 4.97449L9.54735 0.280994C9.80659 0.187384 10.0902 0.186101 10.3503 0.277359C10.6104 0.368618 10.831 0.546827 10.9749 0.7819C11.8114 2.00411 12.7381 3.17122 13.6598 4.40846C14.5865 3.18124 15.5031 2.00912 16.3597 0.796928C16.483 0.563312 16.688 0.383193 16.9355 0.290834C17.183 0.198476 17.4558 0.200322 17.7021 0.296022L16.3046 2.14938C15.6784 2.97587 15.0623 3.80737 14.4111 4.61383C14.3587 4.66081 14.3167 4.71833 14.288 4.78264C14.2592 4.84694 14.2444 4.91658 14.2444 4.98701C14.2444 5.05744 14.2592 5.12708 14.288 5.19138C14.3167 5.25568 14.3587 5.3132 14.4111 5.36018C15.6083 6.94806 16.7955 8.54094 18.0177 10.1739Z" fill="white"/>
<path d="M34.4573 0.231079V0.932348C33.9507 0.899119 33.4427 0.972489 32.9662 1.14772C32.4897 1.32295 32.0552 1.59615 31.6908 1.94969C31.3265 2.30323 31.0402 2.72924 30.8507 3.20024C30.6611 3.67123 30.5724 4.17674 30.5903 4.68413C30.5903 6.33379 30.5903 7.98344 30.5903 9.63309C30.5903 9.8084 30.5903 9.98372 30.5903 10.1941H29.874V0.271153H30.5753V2.30483C31.4419 0.822148 32.7793 0.271152 34.4573 0.231079Z" fill="white"/>
<path d="M0 4.90982C0.10519 4.40891 0.170308 3.86292 0.315571 3.352C1.18214 0.271427 4.71353 -1.01089 7.14292 0.897561C8.56549 2.01458 8.92114 3.59744 8.85101 5.38067H0.836513C0.706278 8.56643 3.00544 10.4899 5.94576 9.50814C6.42272 9.33753 6.84969 9.05083 7.18812 8.67391C7.52655 8.297 7.7658 7.84174 7.88426 7.34923C8.03954 6.84833 8.29 6.76317 8.76586 6.90843C8.68747 7.51824 8.47186 8.10234 8.13524 8.61683C7.79861 9.13131 7.34973 9.56278 6.82234 9.87881C5.95096 10.3553 4.95123 10.5441 3.9661 10.4181C2.98096 10.2922 2.06088 9.85795 1.33742 9.17754C0.621703 8.37281 0.188944 7.356 0.10519 6.2823C0.10519 6.11199 0.0400725 5.94169 0.00500906 5.7814C0.00166968 5.48419 0 5.19367 0 4.90982ZM0.846531 4.69443H8.09464C8.04956 2.38525 6.59192 0.747289 4.64841 0.732261C2.48449 0.702207 0.936694 2.30511 0.841522 4.68441L0.846531 4.69443Z" fill="white"/>
</svg>

<svg width="62" height="14" fill="none" xmlns="http://www.w3.org/2000/svg"><path d="M19.235 13.836V.272h.736v2.133c.087-.094.168-.195.24-.3A3.647 3.647 0 0123.539.04c1.678-.05 3.04.571 3.842 2.064a6.633 6.633 0 01.16 6.08c-.746 1.674-2.59 2.505-4.563 2.2A3.691 3.691 0 0120.03 8.44v5.395h-.796zm.736-8.766c.065.661.09 1.132.166 1.593.29 1.813 1.362 2.89 3.045 3.086a3.461 3.461 0 003.802-2.2 5.895 5.895 0 00-.13-4.848A3.39 3.39 0 0023.282.727a3.3 3.3 0 00-2.95 2.44 16.737 16.737 0 00-.36 1.903zM43.218 6.913a3.967 3.967 0 01-3.877 3.507c-3.085.155-4.533-1.894-4.763-4.258a6.823 6.823 0 01.6-3.757 4.193 4.193 0 014.364-2.34 4.007 4.007 0 013.556 3.051c.157.745.272 1.497.346 2.255h-8.11c-.15 2.143 1.002 3.867 2.635 4.282 2.033.501 3.772-.38 4.403-2.314.14-.496.395-.566.846-.426zm-7.884-2.229h7.248C42.537 2.4 41.114.747 39.186.722c-2.184-.035-3.757 1.558-3.852 3.962zM44.711 6.964h.711a2.85 2.85 0 001.673 2.454 4.373 4.373 0 003.797-.1 1.708 1.708 0 001.002-1.678 1.548 1.548 0 00-1.042-1.548c-.781-.29-1.613-.45-2.41-.706a17.656 17.656 0 01-2.424-.887c-1.282-.626-1.362-3.065.09-3.837a5.115 5.115 0 014.89-.075A2.575 2.575 0 0152.3 3.212h-.611c0-.03-.056-.055-.056-.085-.075-1.949-1.708-2.55-3.46-2.38a4.593 4.593 0 00-1.503.456 1.503 1.503 0 00-.872 1.503A1.503 1.503 0 0046.8 4.119c.771.28 1.578.46 2.37.68.635.176 1.296.291 1.913.502a2.26 2.26 0 011.552 2.038 2.41 2.41 0 01-1.297 2.505c-1.673.947-4.428.696-5.655-.501a3.34 3.34 0 01-.972-2.38zM61.652 3.212h-.666c0-.09-.036-.17-.046-.246A2.179 2.179 0 0059.167.873a4.373 4.373 0 00-2.81.135 1.708 1.708 0 00-1.237 1.628 1.573 1.573 0 001.202 1.583c1.002.31 2.029.5 3.046.781.33.08.654.178.971.296a2.504 2.504 0 01.136 4.663 5.576 5.576 0 01-4.509.045 3.125 3.125 0 01-1.883-3.035h.651a3.651 3.651 0 005.56 2.324 1.787 1.787 0 00.962-1.673 1.548 1.548 0 00-1.057-1.538c-.781-.29-1.613-.446-2.41-.701a17.75 17.75 0 01-2.439-.877c-1.252-.616-1.352-3.035.075-3.807a5.044 5.044 0 014.97-.055 2.62 2.62 0 011.257 2.57zM18.018 10.174a1.147 1.147 0 01-1.423-.541c-.816-1.222-1.718-2.39-2.585-3.582l-.375-.5c-1.032 1.382-2.064 2.71-3.006 4.087a1.102 1.102 0 01-1.352.53l3.872-5.194L9.547.281a1.197 1.197 0 011.428.5c.836 1.223 1.763 2.39 2.685 3.627.926-1.227 1.843-2.399 2.7-3.611a1.077 1.077 0 011.342-.501l-1.397 1.853c-.627.827-1.243 1.658-1.894 2.465a.501.501 0 000 .746c1.197 1.588 2.385 3.18 3.607 4.814zM34.457.231v.701a3.632 3.632 0 00-3.867 3.752v5.51h-.716V.271h.701v2.034C31.442.822 32.78.27 34.457.23zM0 4.91c.105-.501.17-1.047.316-1.558C1.182.272 4.714-1.011 7.143.898 8.565 2.015 8.92 3.598 8.85 5.38H.837c-.13 3.185 2.168 5.109 5.109 4.127A3.05 3.05 0 007.884 7.35c.156-.5.406-.586.882-.44a4.068 4.068 0 01-1.944 2.97 4.708 4.708 0 01-5.485-.701A4.934 4.934 0 01.105 6.282c0-.17-.065-.34-.1-.5A77.606 77.606 0 010 4.91zm.847-.216h7.248C8.05 2.385 6.592.747 4.648.732 2.484.702.937 2.305.842 4.684l.005.01z" fill="#fff"/></svg>
